packages/components/icon/src/assets/icons/checkbox-indeterminate.svg

<svg width="24" height="24" viewBox="0 0 24 24" fill="none" xmlns="http://www.w3.org/2000/svg">
<path fill-rule="evenodd" clip-rule="evenodd" d="M5.43182 20.2273C5.04132 20.2273 4.70506 20.0863 4.42304 19.8042C4.14101 19.5222 4 19.186 4 18.7955V5.43182C4 5.04132 4.14101 4.70506 4.42304 4.42304C4.70506 4.14101 5.04132 4 5.43182 4H18.7955C19.186 4 19.5222 4.14101 19.8042 4.42304C20.0863 4.70506 20.2273 5.04132 20.2273 5.43182V18.7955C20.2273 19.186 20.0863 19.5222 19.8042 19.8042C19.5222 20.0863 19.186 20.2273 18.7955 20.2273H5.43182ZM8.77273 11.1591V13.0682H15.4545V11.1591H8.77273Z" fill="currentColor"/>
</svg>

<svg viewBox="0 0 24 24" fill="none" xmlns="http://www.w3.org/2000/svg"><path fill-rule="evenodd" clip-rule="evenodd" d="M5.432 20.227c-.39 0-.727-.14-1.009-.423A1.377 1.377 0 0 1 4 18.796V5.431c0-.39.141-.727.423-1.009A1.377 1.377 0 0 1 5.432 4h13.364c.39 0 .726.141 1.008.423.282.282.423.618.423 1.009v13.364c0 .39-.14.726-.423 1.008a1.377 1.377 0 0 1-1.008.423H5.431Zm3.34-9.068v1.91h6.682v-1.91H8.773Z" fill="currentColor"/></svg>
